flaticon/sewing/zipper-1.svg

<svg xmlns="http://www.w3.org/2000/svg" width="32" height="32" viewBox="0 0 24 24">
    <path d="M 5.160156 11.398438 C 5.160156 10.839844 4.71875 10.398438 4.160156 10.398438 L 3 10.398438 C 2.441406 10.398438 2 10.839844 2 11.441406 L 2 12.601562 C 2 13.160156 2.441406 13.601562 3 13.601562 L 4.199219 13.601562 C 4.761719 13.601562 5.199219 13.160156 5.160156 12.558594 Z M 4.359375 12.601562 C 4.359375 12.71875 4.28125 12.800781 4.160156 12.800781 L 3 12.800781 C 2.878906 12.800781 2.800781 12.71875 2.800781 12.558594 L 2.800781 11.398438 C 2.800781 11.28125 2.878906 11.199219 3 11.199219 L 3 11.238281 L 4.160156 11.238281 C 4.28125 11.238281 4.359375 11.320312 4.359375 11.441406 Z M 4.359375 12.601562"/>
    <path d="M 23.601562 13.601562 L 22.800781 13.601562 L 22.800781 12.800781 C 22.800781 12.558594 22.640625 12.398438 22.398438 12.398438 C 22.160156 12.398438 22 12.558594 22 12.800781 L 22 13.601562 L 21.199219 13.601562 L 21.199219 12.800781 C 21.199219 12.558594 21.039062 12.398438 20.800781 12.398438 C 20.558594 12.398438 20.398438 12.558594 20.398438 12.800781 L 20.398438 13.601562 L 19.601562 13.601562 L 19.601562 12.800781 C 19.601562 12.558594 19.441406 12.398438 19.199219 12.398438 C 18.960938 12.398438 18.800781 12.558594 18.800781 12.800781 L 18.800781 13.601562 L 18 13.601562 L 18 12.800781 C 18 12.558594 17.839844 12.398438 17.601562 12.398438 C 17.359375 12.398438 17.199219 12.558594 17.199219 12.800781 L 17.199219 13.601562 L 15.351562 13.601562 C 15.507812 13.007812 15.578125 12.503906 15.601562 12.238281 C 15.601562 12.160156 15.601562 12.121094 15.601562 12.039062 C 15.601562 12.035156 15.597656 12.03125 15.597656 12.027344 C 15.597656 12.019531 15.601562 12.007812 15.601562 12 C 15.601562 11.863281 15.578125 11.734375 15.539062 11.617188 C 15.507812 11.324219 15.433594 10.890625 15.300781 10.398438 L 16.398438 10.398438 L 16.398438 11.199219 C 16.398438 11.441406 16.558594 11.601562 16.800781 11.601562 C 17.039062 11.601562 17.199219 11.441406 17.199219 11.199219 L 17.199219 10.398438 L 18 10.398438 L 18 11.199219 C 18 11.441406 18.160156 11.601562 18.398438 11.601562 C 18.640625 11.601562 18.800781 11.441406 18.800781 11.199219 L 18.800781 10.398438 L 19.601562 10.398438 L 19.601562 11.199219 C 19.601562 11.441406 19.761719 11.601562 20 11.601562 C 20.238281 11.601562 20.398438 11.441406 20.398438 11.199219 L 20.398438 10.398438 L 21.199219 10.398438 L 21.199219 11.199219 C 21.199219 11.441406 21.359375 11.601562 21.601562 11.601562 C 21.839844 11.601562 22 11.441406 22 11.199219 L 22 10.398438 L 22.800781 10.398438 L 22.800781 11.199219 C 22.800781 11.441406 22.960938 11.601562 23.199219 11.601562 C 23.441406 11.601562 23.601562 11.441406 23.601562 11.199219 L 23.601562 10.398438 C 23.839844 10.398438 24 10.238281 24 10 C 24 9.761719 23.839844 9.601562 23.601562 9.601562 L 15.039062 9.601562 C 14.949219 9.359375 14.84375 9.117188 14.71875 8.878906 C 14.320312 8.078125 13.601562 7.519531 12.71875 7.28125 C 11.839844 7.039062 10.878906 7.160156 10.078125 7.640625 L 7.398438 9.238281 C 7.394531 9.242188 7.390625 9.246094 7.386719 9.25 C 6.972656 9.257812 6.011719 9.21875 5 8.761719 C 4.480469 8.519531 4 8.441406 3.519531 8.480469 C 1.238281 8.761719 0 10 0 12 C 0 14.839844 2.441406 15.441406 3.519531 15.601562 C 3.601562 15.601562 3.71875 15.601562 3.800781 15.601562 C 4.160156 15.601562 4.558594 15.519531 5 15.320312 C 6.199219 14.777344 7.363281 14.824219 7.566406 14.835938 L 10.078125 16.359375 C 10.640625 16.679688 11.238281 16.839844 11.839844 16.839844 C 12.121094 16.839844 12.441406 16.800781 12.761719 16.761719 C 13.640625 16.519531 14.359375 15.960938 14.761719 15.160156 C 14.890625 14.910156 15 14.652344 15.09375 14.398438 L 23.601562 14.398438 C 23.839844 14.398438 24 14.238281 24 14 C 24 13.761719 23.839844 13.601562 23.601562 13.601562 Z M 11 11.601562 L 14.398438 11.601562 C 14.574219 11.601562 14.71875 11.722656 14.777344 11.859375 C 14.792969 11.902344 14.800781 11.949219 14.800781 12 C 14.800781 12.238281 14.640625 12.398438 14.398438 12.398438 L 9.199219 12.398438 C 8.960938 12.398438 8.800781 12.238281 8.800781 12 C 8.800781 11.761719 8.960938 11.601562 9.199219 11.601562 Z M 10.519531 8.320312 C 11.121094 7.960938 11.839844 7.839844 12.519531 8.039062 C 13.199219 8.199219 13.71875 8.640625 14.039062 9.238281 C 14.320312 9.761719 14.480469 10.320312 14.601562 10.800781 C 14.519531 10.800781 14.480469 10.800781 14.398438 10.800781 L 11.316406 10.800781 C 11.140625 10.5 10.917969 10.246094 10.636719 10.039062 C 10.527344 9.953125 10.410156 9.871094 10.28125 9.800781 C 9.878906 9.601562 9.398438 9.398438 8.839844 9.320312 Z M 4.640625 14.601562 C 4.238281 14.761719 3.921875 14.839844 3.601562 14.800781 C 2.558594 14.640625 0.800781 14.121094 0.800781 12 C 0.800781 10.441406 1.761719 9.519531 3.640625 9.238281 C 3.679688 9.238281 3.761719 9.238281 3.800781 9.238281 C 4.039062 9.238281 4.320312 9.320312 4.640625 9.441406 C 6.039062 10.101562 7.363281 10.007812 7.621094 10 C 7.632812 10 7.644531 10 7.65625 10 C 8.148438 10.023438 8.59375 10.078125 8.996094 10.175781 C 9.320312 10.265625 9.621094 10.382812 9.878906 10.519531 C 10.023438 10.601562 10.148438 10.695312 10.257812 10.800781 L 9.199219 10.800781 C 8.519531 10.800781 8 11.320312 8 12 C 8 12.679688 8.519531 13.199219 9.199219 13.199219 L 10.359375 13.199219 C 10.238281 13.320312 10.078125 13.441406 9.921875 13.519531 C 9.320312 13.878906 8.558594 14.039062 7.640625 14.039062 C 7.441406 14.039062 6.039062 13.921875 4.640625 14.601562 Z M 14 14.761719 C 13.679688 15.359375 13.121094 15.761719 12.480469 15.960938 C 11.800781 16.160156 11.078125 16.039062 10.480469 15.679688 L 8.898438 14.730469 C 9.425781 14.632812 9.90625 14.46875 10.320312 14.238281 C 10.761719 14 11.117188 13.644531 11.339844 13.199219 L 14.398438 13.199219 C 14.457031 13.199219 14.496094 13.199219 14.558594 13.199219 C 14.441406 13.679688 14.28125 14.238281 14 14.761719 Z M 14 14.761719"/>
</svg>

<svg xmlns="http://www.w3.org/2000/svg" width="32" height="32" viewBox="0 0 24 24">
    <path d="M5.16 11.398c0-.558-.441-1-1-1H3c-.559 0-1 .442-1 1.043v1.16c0 .56.441 1 1 1h1.2c.562 0 1-.44.96-1.042zm-.8 1.204c0 .117-.079.199-.2.199H3c-.121 0-.2-.082-.2-.242v-1.16c0-.118.079-.2.2-.2v.04h1.16c.121 0 .2.081.2.202zm0 0"/>
    <path d="M23.602 13.602H22.8V12.8c0-.242-.16-.403-.403-.403-.238 0-.398.16-.398.403v.8h-.8v-.8c0-.242-.16-.403-.4-.403-.241 0-.402.16-.402.403v.8h-.796v-.8c0-.242-.16-.403-.403-.403-.238 0-.398.16-.398.403v.8H18v-.8c0-.242-.16-.403-.398-.403-.243 0-.403.16-.403.403v.8h-1.847a8.661 8.661 0 0 0 .25-1.363v-.199c0-.004-.004-.008-.004-.012 0-.007.004-.02.004-.027a1.21 1.21 0 0 0-.063-.383 8.236 8.236 0 0 0-.238-1.219h1.097v.801c0 .242.16.403.403.403.238 0 .398-.16.398-.403v-.8H18v.8c0 .242.16.403.398.403.243 0 .403-.16.403-.403v-.8h.8v.8c0 .242.16.403.399.403.238 0 .398-.16.398-.403v-.8h.801v.8c0 .242.16.403.403.403.238 0 .398-.16.398-.403v-.8h.8v.8c0 .242.16.403.4.403.241 0 .402-.16.402-.403v-.8c.238 0 .398-.16.398-.399 0-.238-.16-.398-.398-.398h-8.563a6.182 6.182 0 0 0-.32-.723c-.399-.8-1.117-1.36-2-1.598a3.394 3.394 0 0 0-2.64.36l-2.68 1.597-.012.012A5.706 5.706 0 0 1 5 8.762c-.52-.242-1-.32-1.48-.282C1.238 8.762 0 10 0 12c0 2.84 2.441 3.441 3.52 3.602h.28c.36 0 .759-.082 1.2-.282a5.783 5.783 0 0 1 2.566-.484l2.512 1.523c.563.32 1.16.48 1.762.48.281 0 .601-.038.922-.077.879-.242 1.597-.801 2-1.602.129-.25.238-.508.332-.762h8.508c.238 0 .398-.16.398-.398 0-.238-.16-.398-.398-.398zm-12.602-2h3.398c.176 0 .32.12.38.257.015.043.023.09.023.141 0 .238-.16.398-.403.398H9.2c-.238 0-.398-.16-.398-.398 0-.238.16-.398.398-.398zm-.48-3.282c.601-.36 1.32-.48 2-.28.68.16 1.199.6 1.52 1.198.28.524.44 1.082.562 1.563h-3.286a2.488 2.488 0 0 0-.68-.762 2.563 2.563 0 0 0-.355-.238c-.402-.2-.883-.403-1.441-.48zm-5.88 6.282c-.402.16-.718.238-1.038.199C2.559 14.64.8 14.12.8 12c0-1.559.96-2.48 2.84-2.762h.16c.238 0 .52.082.84.203 1.398.66 2.722.567 2.98.559h.035a7.14 7.14 0 0 1 1.34.176c.324.09.625.207.883.344.144.082.27.175.379.28H9.199C8.52 10.8 8 11.32 8 12c0 .68.52 1.2 1.2 1.2h1.16a1.778 1.778 0 0 1-.438.32c-.602.359-1.363.52-2.281.52-.2 0-1.602-.118-3 .562zm9.36.16c-.32.597-.879 1-1.52 1.199-.68.2-1.402.078-2-.281l-1.582-.95a4.668 4.668 0 0 0 1.422-.492 2.402 2.402 0 0 0 1.02-1.039h3.218c-.117.48-.277 1.04-.558 1.563zm0 0"/>
</svg>
